X: 31775
T: Patrick Sellar
R: reel
M: 4/4
K: Cmajor
F2|ECEG c>BAG|AGFE DG,B,D|CEGB cEFE|Ddd^FG3F|
ECEG c>BAG|FEDC DG,B,D|CEGA BcAc|B,G B/c/dc3f|
ecG>F EccE|Fdd>c Bcdf|ecGF EGce|d>^cd^fg3f|
ecG>F EccE|Fdd>c Bcdf|ecGE FdEc|DdB<Gc3||

